public/topics/33.svg

<svg width="250" height="250" viewBox="0 0 250 250" fill="none" xmlns="http://www.w3.org/2000/svg">
<rect width="250" height="250" rx="30" fill="#669933"/>
<path d="M79 115C89.9333 117.4 99 122.133 106.2 129.2C113.4 136.267 117 144.467 117 153.8C117 159.4 115.667 164.867 113 170.2C108.733 178.733 102.333 185.133 93.8 189.4C85.4 193.667 75.6667 195.8 64.6 195.8C57.6667 195.8 51.4667 194.533 46 192C40.5333 189.333 35.1333 185.8 29.8 181.4C27.8 179.533 26 176.867 24.4 173.4C22.9333 169.933 22.2 167.067 22.2 164.8C22.2 161.867 23 159.533 24.6 157.8C26.3333 155.933 28.6 155 31.4 155C34.2 155 36.4 155.667 38 157C39.6 158.333 41.5333 160.467 43.8 163.4C45.9333 166.2 47.8667 168.467 49.6 170.2C51.3333 171.8 53.6667 173.2 56.6 174.4C59.5333 175.6 63.2 176.2 67.6 176.2C76.5333 176.2 83.5333 174 88.6 169.6C93.6667 165.2 96.2 159 96.2 151C96.2 147.933 94.5333 144.867 91.2 141.8C87.8667 138.6 84.7333 136.333 81.8 135C80.0667 134.067 76.8667 133.133 72.2 132.2C65.9333 130.6 61.2 129.067 58 127.6C54.9333 126 53.4 123.533 53.4 120.2C53.4 117.933 54.4 115.733 56.4 113.6C58.4 111.333 61.4 108.533 65.4 105.2C69.4 101.867 72.4 99.1333 74.4 97C76.4 94.7333 77.4 92.4667 77.4 90.2C74.8667 89.5333 71.0667 89.2 66 89.2C63.7333 89.2 60.3333 89.3333 55.8 89.6C51.8 89.8667 48.7333 90 46.6 90C41.8 90 37.6667 89.2 34.2 87.6C30.8667 86 29.2 83.9333 29.2 81.4C29.2 78.6 29.4667 76.4 30 74.8C30.5333 73.0667 31.5333 72 33 71.6C33.9333 71.2 35.6 71 38 71C44.5333 71 50.2 71.2 55 71.6C60.3333 71.8667 64.4 72 67.2 72L83.8 71.8C97.4 71.8 104.2 75.0667 104.2 81.6C104.2 86.5333 101.667 92.1333 96.6 98.4C91.6667 104.533 85.8 110.067 79 115ZM187.984 115C198.918 117.4 207.984 122.133 215.184 129.2C222.384 136.267 225.984 144.467 225.984 153.8C225.984 159.4 224.651 164.867 221.984 170.2C217.718 178.733 211.318 185.133 202.784 189.4C194.384 193.667 184.651 195.8 173.584 195.8C166.651 195.8 160.451 194.533 154.984 192C149.518 189.333 144.118 185.8 138.784 181.4C136.784 179.533 134.984 176.867 133.384 173.4C131.918 169.933 131.184 167.067 131.184 164.8C131.184 161.867 131.984 159.533 133.584 157.8C135.318 155.933 137.584 155 140.384 155C143.184 155 145.384 155.667 146.984 157C148.584 158.333 150.518 160.467 152.784 163.4C154.918 166.2 156.851 168.467 158.584 170.2C160.318 171.8 162.651 173.2 165.584 174.4C168.518 175.6 172.184 176.2 176.584 176.2C185.518 176.2 192.518 174 197.584 169.6C202.651 165.2 205.184 159 205.184 151C205.184 147.933 203.518 144.867 200.184 141.8C196.851 138.6 193.718 136.333 190.784 135C189.051 134.067 185.851 133.133 181.184 132.2C174.918 130.6 170.184 129.067 166.984 127.6C163.918 126 162.384 123.533 162.384 120.2C162.384 117.933 163.384 115.733 165.384 113.6C167.384 111.333 170.384 108.533 174.384 105.2C178.384 101.867 181.384 99.1333 183.384 97C185.384 94.7333 186.384 92.4667 186.384 90.2C183.851 89.5333 180.051 89.2 174.984 89.2C172.718 89.2 169.318 89.3333 164.784 89.6C160.784 89.8667 157.718 90 155.584 90C150.784 90 146.651 89.2 143.184 87.6C139.851 86 138.184 83.9333 138.184 81.4C138.184 78.6 138.451 76.4 138.984 74.8C139.518 73.0667 140.518 72 141.984 71.6C142.918 71.2 144.584 71 146.984 71C153.518 71 159.184 71.2 163.984 71.6C169.318 71.8667 173.384 72 176.184 72L192.784 71.8C206.384 71.8 213.184 75.0667 213.184 81.6C213.184 86.5333 210.651 92.1333 205.584 98.4C200.651 104.533 194.784 110.067 187.984 115Z" fill="white"/>
</svg>

<svg xmlns="http://www.w3.org/2000/svg" width="250" height="250" fill="none" viewBox="0 0 250 250"><rect width="250" height="250" fill="#693" rx="30"/><path fill="#fff" d="M79 115q16.4 3.6 27.2 14.2t10.8 24.6q0 8.4-4 16.4-6.4 12.8-19.2 19.2-12.6 6.4-29.2 6.4-10.4 0-18.6-3.8-8.2-4-16.2-10.6-3-2.8-5.4-8-2.2-5.2-2.2-8.6 0-4.4 2.4-7 2.6-2.8 6.8-2.8t6.6 2 5.8 6.4q3.2 4.2 5.8 6.8 2.6 2.4 7 4.2t11 1.8q13.4 0 21-6.6t7.6-18.6q0-4.6-5-9.2-5-4.8-9.4-6.8-2.6-1.4-9.6-2.8-9.4-2.4-14.2-4.6-4.6-2.4-4.6-7.4 0-3.4 3-6.6 3-3.4 9-8.4t9-8.2q3-3.4 3-6.8-3.8-1-11.4-1-3.4 0-10.2.4-6 .4-9.2.4-7.2 0-12.4-2.4-5-2.4-5-6.2 0-4.2.8-6.6.8-2.6 3-3.2 1.4-.6 5-.6 9.8 0 17 .6 8 .4 12.2.4l16.6-.2q20.4 0 20.4 9.8 0 7.4-7.6 16.8-7.4 9.2-17.6 16.6m108.984 0q16.4 3.6 27.2 14.2t10.8 24.6q0 8.4-4 16.4-6.399 12.8-19.2 19.2-12.6 6.4-29.2 6.4-10.4 0-18.6-3.8-8.199-4-16.2-10.6-3-2.8-5.4-8-2.2-5.2-2.2-8.6 0-4.4 2.4-7 2.6-2.8 6.8-2.8t6.6 2 5.8 6.4q3.2 4.2 5.8 6.8 2.6 2.4 7 4.2t11 1.8q13.401 0 21-6.6t7.6-18.6q0-4.6-5-9.2-5-4.8-9.4-6.8-2.6-1.4-9.6-2.8-9.4-2.4-14.2-4.6-4.6-2.4-4.6-7.4 0-3.4 3-6.6 3-3.4 9-8.4t9-8.2q3-3.4 3-6.8-3.8-1-11.4-1-3.399 0-10.2.4-6 .4-9.2.4-7.2 0-12.4-2.4-5-2.4-5-6.2 0-4.2.8-6.6.801-2.6 3-3.2 1.4-.6 5-.6 9.8 0 17 .6 8 .4 12.2.4l16.6-.2q20.4 0 20.4 9.8 0 7.4-7.6 16.8-7.4 9.2-17.6 16.6"/></svg>
